images/company6.svg

<svg width="190" height="40" viewBox="0 0 190 40" fill="none" xmlns="http://www.w3.org/2000/svg">
<g id="Frame" clip-path="url(#clip0_282_1463)">
<g id="Clip path group">
<mask id="mask0_282_1463" style="mask-type:luminance" maskUnits="userSpaceOnUse" x="0" y="0" width="190" height="40">
<g id="a">
<path id="Vector" d="M0.1875 0H189.076V40H0.1875V0Z" fill="white"/>
</g>
</mask>
<g mask="url(#mask0_282_1463)">
<g id="Group">
<path id="Vector_2" d="M188.476 39.8889C188.81 39.8889 189.076 39.6444 189.076 39.3111V35.1778C189.071 35.0225 189.005 34.8755 188.893 34.7678C188.781 34.66 188.632 34.5999 188.476 34.6H182.988C181.721 34.6 178.321 34.5333 176.454 33.6C175.92 33.3644 175.448 33.0067 175.076 32.5555C174.782 32.1415 174.633 31.6411 174.654 31.1333V0.666645C174.649 0.515167 174.586 0.371389 174.479 0.264206C174.372 0.157024 174.228 0.094381 174.076 0.0888673H162.076C161.921 0.0887607 161.772 0.148915 161.66 0.256675C161.548 0.364435 161.482 0.511398 161.476 0.666645V30.2C161.476 31.7555 161.832 33.2 162.499 34.2C163.232 35.2889 164.365 36.3778 165.832 37.1778C170.365 39.6666 178.365 39.9333 181.476 39.9111H188.476M27.8764 39.7333C28.2097 39.7333 28.4764 39.4667 28.4764 39.1333V5.46665H43.0097C43.3431 5.46665 43.6097 5.19998 43.6097 4.86665V0.733312C43.604 0.578065 43.5382 0.431101 43.4263 0.323342C43.3144 0.215582 43.1651 0.155427 43.0097 0.155534H0.7875C0.709776 0.152542 0.632248 0.165275 0.559564 0.192969C0.486879 0.220662 0.420535 0.262747 0.364507 0.316699C0.308479 0.370652 0.263922 0.435362 0.233506 0.50695C0.203091 0.578538 0.187443 0.65553 0.1875 0.733312V4.88887C0.1875 5.19998 0.454167 5.46665 0.7875 5.46665H15.2986V39.1555C15.2986 39.4667 15.5653 39.7333 15.8986 39.7333H27.8986" fill="white"/>
<path id="Vector_3" d="M67.4981 19.9998C67.4981 20.5775 67.3425 21.0664 67.0536 21.422C66.7648 21.8442 66.2981 22.1775 65.6981 22.4664C63.8314 23.3998 60.4314 23.4664 59.1425 23.4664H48.6981V18.8664C48.6981 18.2664 48.8314 17.7998 49.0981 17.422C49.4092 17.022 49.8759 16.6887 50.4759 16.3775C52.3425 15.4887 55.7425 15.3998 57.0314 15.3998H59.1425C60.4314 15.3998 63.8092 15.4664 65.6981 16.3775C66.2981 16.6887 66.7648 17.0442 67.0759 17.422C67.3425 17.7998 67.4981 18.2887 67.4981 18.8664V19.9998ZM80.4759 39.7109C80.787 39.7109 81.0536 39.4442 81.0536 39.1331V34.9998C81.0537 34.8444 80.9936 34.6951 80.8858 34.5832C80.7781 34.4713 80.6311 34.4055 80.4759 34.3998H57.0314C55.7648 34.3998 52.3648 34.3553 50.4981 33.422C49.963 33.1872 49.4909 32.8293 49.1203 32.3775C48.8256 31.9635 48.677 31.4631 48.6981 30.9553V28.7553H60.6536C63.7648 28.7553 71.987 28.5998 76.4981 26.3775C77.987 25.6664 79.0981 24.822 79.8314 23.8442C81.387 21.7775 81.5203 17.622 79.8314 15.3553C78.9379 14.2575 77.7951 13.389 76.4981 12.822C71.987 10.5998 63.7648 10.4442 60.6536 10.4442H55.5425C52.4092 10.4442 44.2092 10.6664 39.6759 12.8887C38.187 13.622 37.0759 14.622 36.3425 15.5998C35.6759 16.4887 35.3203 17.822 35.3203 19.1998V30.9331C35.3203 32.3553 35.6536 33.6442 36.3425 34.5553C37.0759 35.5331 38.187 36.5109 39.6759 37.2442C44.187 39.4664 52.4092 39.7331 55.5203 39.6887H80.4536V39.7109H80.4759ZM141.298 31.5109C141.298 32.0887 141.143 32.5775 140.854 32.9553C140.565 33.3553 140.098 33.6887 139.498 33.9998C137.609 34.8887 134.231 34.9775 132.943 34.9775H130.831C129.543 34.9775 126.165 34.9109 124.276 33.9998C123.676 33.6887 123.209 33.3331 122.92 32.9553C122.613 32.538 122.456 32.0288 122.476 31.5109V30.1775C122.476 29.5998 122.631 29.1109 122.92 28.7331C123.209 28.3331 123.676 27.9998 124.276 27.6887C126.165 26.7998 129.543 26.7109 130.831 26.7109H141.276V31.5109H141.298ZM153.631 15.822C152.747 14.676 151.605 13.7547 150.298 13.1331C145.787 10.9109 137.565 10.6442 134.454 10.6664H113.965C113.806 10.6664 113.653 10.7296 113.54 10.8422C113.428 10.9547 113.365 11.1073 113.365 11.2664V15.3775C113.365 15.7109 113.631 15.9775 113.965 15.9775H132.92C134.209 15.9775 137.587 16.0442 139.454 16.9553C140.076 17.2442 140.543 17.5998 140.831 17.9998C141.12 18.3775 141.276 18.8442 141.276 19.422V21.3998H129.32C126.209 21.3998 117.987 21.5553 113.454 23.7775C111.965 24.5109 110.854 25.3331 110.12 26.3109C109.304 27.6172 108.872 29.1263 108.872 30.6664C108.872 32.2066 109.304 33.7157 110.12 35.022C110.854 35.9998 111.965 36.822 113.454 37.5553C117.965 39.7775 126.187 39.9331 129.298 39.9331H134.431C137.543 39.9331 145.765 39.6887 150.298 37.4664C151.605 36.8448 152.747 35.9236 153.631 34.7775C154.298 33.8664 154.631 32.5553 154.631 31.1553V19.422C154.631 18.022 154.298 16.7109 153.609 15.822H153.631ZM181.698 2.31087H181.987L182.587 3.22198H183.031L182.409 2.26643C182.809 2.22198 182.987 1.95532 182.987 1.64421C182.987 1.24421 182.765 0.977539 182.276 0.977539H181.298V3.22198H181.698V2.31087ZM181.698 1.95532V1.33309H182.143C182.365 1.33309 182.587 1.33309 182.587 1.62198C182.587 1.95532 182.387 1.95532 182.12 1.95532H181.676H181.698Z" fill="white"/>
<path id="Vector_4" d="M182.077 3.8C181.837 3.82744 181.595 3.80393 181.365 3.73101C181.135 3.6581 180.923 3.53743 180.743 3.37692C180.563 3.2164 180.419 3.01966 180.321 2.79961C180.222 2.57955 180.171 2.34113 180.171 2.1C180.171 1.85887 180.222 1.62045 180.321 1.40039C180.419 1.18034 180.563 0.9836 180.743 0.823085C180.923 0.66257 181.135 0.5419 181.365 0.468987C181.595 0.396074 181.837 0.372565 182.077 0.4C182.494 0.447798 182.88 0.647468 183.159 0.96097C183.439 1.27447 183.593 1.6799 183.593 2.1C183.593 2.5201 183.439 2.92553 183.159 3.23903C182.88 3.55253 182.494 3.7522 182.077 3.8ZM182.077 0C181.8 -4.13112e-09 181.525 0.0546055 181.269 0.160699C181.013 0.266792 180.78 0.422295 180.584 0.61833C180.388 0.814365 180.233 1.04709 180.127 1.30322C180.021 1.55936 179.966 1.83388 179.966 2.11111C179.966 2.38835 180.021 2.66287 180.127 2.919C180.233 3.17513 180.388 3.40786 180.584 3.60389C180.78 3.79993 181.013 3.95543 181.269 4.06152C181.525 4.16762 181.8 4.22222 182.077 4.22222C182.637 4.22222 183.174 3.9998 183.57 3.60389C183.966 3.20798 184.188 2.67101 184.188 2.11111C184.188 1.55121 183.966 1.01424 183.57 0.61833C183.174 0.22242 182.637 8.34318e-09 182.077 0ZM86.6992 39.1111C86.6992 39.4444 86.9437 39.7111 87.277 39.7111H99.277C99.5881 39.7111 99.8548 39.4444 99.8548 39.1333V15.9778H107.188C107.499 15.9778 107.766 15.7111 107.766 15.3778V11.2667C107.766 11.1113 107.706 10.962 107.598 10.8501C107.49 10.7382 107.343 10.6724 107.188 10.6667H99.8548V8.82222C99.8548 8.24444 99.9881 7.77778 100.277 7.4C100.566 7 101.033 6.66667 101.655 6.35556C103.521 5.44444 107.121 5.37778 108.41 5.37778H113.677C114.01 5.37778 114.277 5.11111 114.277 4.77778V0.666667C114.271 0.51142 114.206 0.364456 114.094 0.256697C113.982 0.148937 113.832 0.0887823 113.677 0.0888889H106.899C103.788 0.0888889 95.5659 0.355556 91.0548 2.82222C89.5659 3.62222 88.4548 4.73333 87.7214 5.8C87.0548 6.8 86.6992 8.24444 86.6992 10.1778V39.1556V39.1111Z" fill="white"/>
</g>
</g>
</g>
</g>
<defs>
<clipPath id="clip0_282_1463">
<rect width="188.889" height="40" fill="white" transform="translate(0.1875)"/>
</clipPath>
</defs>
</svg>

<svg width="190" height="40" fill="none" xmlns="http://www.w3.org/2000/svg"><g clip-path="url(#a)"><mask id="b" style="mask-type:luminance" maskUnits="userSpaceOnUse" x="0" y="0" width="190" height="40"><path d="M.188 0h188.888v40H.188V0Z" fill="#fff"/></mask><g fill="#fff" mask="url(#b)"><path d="M188.476 39.889c.334 0 .6-.245.6-.578v-4.133a.596.596 0 0 0-.6-.578h-5.488c-1.267 0-4.667-.067-6.534-1a3.746 3.746 0 0 1-1.378-1.044 2.294 2.294 0 0 1-.422-1.423V.667a.598.598 0 0 0-.578-.578h-12a.6.6 0 0 0-.6.578V30.2c0 1.556.356 3 1.023 4 .733 1.089 1.866 2.178 3.333 2.978 4.533 2.489 12.533 2.755 15.644 2.733h7m-160.6-.178c.334 0 .6-.266.6-.6V5.467H43.01c.333 0 .6-.267.6-.6V.733a.6.6 0 0 0-.6-.577H.788a.578.578 0 0 0-.6.577V4.89c0 .311.266.578.6.578h14.51v33.689c0 .31.267.577.6.577h12"/><path d="M67.498 20c0 .578-.156 1.066-.444 1.422-.29.422-.756.755-1.356 1.044-1.867.934-5.267 1-6.555 1H48.697v-4.6c0-.6.133-1.066.4-1.444.311-.4.778-.733 1.378-1.044 1.867-.89 5.267-.978 6.555-.978h2.111c1.29 0 4.667.066 6.556.978.6.31 1.067.666 1.378 1.044.267.378.422.867.422 1.444V20Zm12.978 19.71a.588.588 0 0 0 .578-.577V35a.6.6 0 0 0-.578-.6H57.03c-1.266 0-4.666-.045-6.533-.978a3.71 3.71 0 0 1-1.378-1.044 2.289 2.289 0 0 1-.422-1.423v-2.2h11.956c3.11 0 11.333-.155 15.844-2.377 1.489-.712 2.6-1.556 3.333-2.534 1.556-2.067 1.69-6.222 0-8.489a8.888 8.888 0 0 0-3.333-2.533c-4.511-2.222-12.733-2.378-15.844-2.378h-5.112c-3.133 0-11.333.222-15.866 2.445-1.489.733-2.6 1.733-3.334 2.71-.666.89-1.022 2.223-1.022 3.6v11.734c0 1.422.334 2.711 1.023 3.622.733.978 1.844 1.956 3.333 2.69 4.511 2.221 12.733 2.488 15.844 2.444h24.934v.022h.022Zm60.822-8.2c0 .579-.155 1.067-.444 1.445-.289.4-.756.734-1.356 1.045-1.889.889-5.267.977-6.555.977h-2.112c-1.288 0-4.666-.066-6.555-.977-.6-.311-1.067-.667-1.356-1.045a2.289 2.289 0 0 1-.444-1.444v-1.334c0-.577.155-1.066.444-1.444.289-.4.756-.733 1.356-1.044 1.889-.89 5.267-.978 6.555-.978h10.445v4.8h.022Zm12.333-15.688a9.2 9.2 0 0 0-3.333-2.689c-4.511-2.222-12.733-2.489-15.844-2.467h-20.489a.603.603 0 0 0-.6.6v4.111c0 .334.266.6.6.6h18.955c1.289 0 4.667.067 6.534.978.622.29 1.089.645 1.377 1.045.289.378.445.844.445 1.422V21.4H129.32c-3.111 0-11.333.155-15.866 2.378-1.489.733-2.6 1.555-3.334 2.533a8.22 8.22 0 0 0 0 8.711c.734.978 1.845 1.8 3.334 2.533 4.511 2.223 12.733 2.378 15.844 2.378h5.133c3.112 0 11.334-.244 15.867-2.467a9.199 9.199 0 0 0 3.333-2.688c.667-.912 1-2.223 1-3.623V19.422c0-1.4-.333-2.711-1.022-3.6h.022Zm28.067-13.511h.289l.6.911h.444l-.622-.956c.4-.044.578-.31.578-.622 0-.4-.222-.666-.711-.666h-.978v2.244h.4v-.911Zm0-.356v-.622h.445c.222 0 .444 0 .444.289 0 .333-.2.333-.467.333h-.444.022Z"/><path d="M182.077 3.8a1.71 1.71 0 1 1-.39-3.398 1.71 1.71 0 0 1 .39 3.398Zm0-3.8a2.112 2.112 0 1 0 0 4.224 2.112 2.112 0 0 0 0-4.224ZM86.699 39.111c0 .333.245.6.578.6h12a.588.588 0 0 0 .578-.578V15.978h7.333a.593.593 0 0 0 .578-.6v-4.111a.6.6 0 0 0-.578-.6h-7.333V8.822c0-.578.133-1.044.422-1.422.289-.4.756-.733 1.378-1.044 1.866-.912 5.466-.978 6.755-.978h5.267c.333 0 .6-.267.6-.6V.667a.6.6 0 0 0-.6-.578h-6.778c-3.111 0-11.333.267-15.844 2.733A9.577 9.577 0 0 0 87.72 5.8c-.666 1-1.022 2.444-1.022 4.378v28.978-.045Z"/></g></g><defs><clipPath id="a"><path fill="#fff" transform="translate(.188)" d="M0 0h188.889v40H0z"/></clipPath></defs></svg>
